X: 32344
T: Pinch Of Snuff, The
R: reel
M: 4/4
K: Gmajor
|:AF F2 AFDF|AF F2 EFGE|AF F2 AFDF|GEFD EFGE:|
|:d2 fd Adfd|d2 fa gece|d2 fd Adfd|gefd efge:|
|:dB B2 dBGB|dB B2 ABcA|dB B2 dBGB|cABG ABcA:|
|:G2 BG DGBG|G2 Bd cAFA|G2 BG DGBG|cABG ABcA:|
|:ec c2 ecAc|ec c2 BcdB|ec c2 ecAc|dBcA BcdB:|
|:A2 cA EAcA|A2 ce dBGB|A2 cA EAcA|dBcA BcdB:|
|:af f2 afdf|af f2 efge|af f2 afdf|gefd efge:|
|:d2 fd Adfd|d2 fa gece|d2 fd Adfd|gefd efge:|

